build/img/footer-shape.svg

<svg width="611" height="487" viewBox="0 0 611 487" fill="none" xmlns="http://www.w3.org/2000/svg">
<path fill-rule="evenodd" clip-rule="evenodd" d="M60.9993 5.08367C60.9998 5.05583 61 5.02794 61 5C61 2.23858 58.7614 0 56 0C53.2386 0 51 2.23858 51 5C51 7.76142 53.2386 10 56 10C56.7805 10 57.5192 9.82118 58.1774 9.50228L170.038 203.25L9.94413 203.25C9.58226 200.844 7.50652 199 5 199C2.23858 199 0 201.239 0 204C0 206.761 2.23858 209 5 209C5.73145 209 6.42622 208.843 7.05242 208.561L162.736 478.212C161.673 479.129 161 480.486 161 482C161 484.761 163.239 487 166 487C168.761 487 171 484.761 171 482C171 480.173 170.021 478.576 168.558 477.703L248.526 339.195L328.061 476.954C326.812 477.863 326 479.337 326 481C326 483.761 328.239 486 331 486C333.761 486 336 483.761 336 481C336 479.442 335.287 478.05 334.17 477.133L604.088 9.62149C604.677 9.8654 605.323 10 606 10C608.761 10 611 7.76142 611 5C611 2.23858 608.761 0 606 0C603.239 0 601 2.23858 601 5C601 5.02793 601 5.0558 601.001 5.08362L60.9993 5.08367ZM601.118 6.08362L60.8822 6.08367C60.6232 7.25619 59.9525 8.2741 59.0294 8.97808L171.192 203.25L325.859 203.25H327.014L326.436 204.25L249.103 338.195L328.924 476.45C329.557 476.161 330.26 476 331 476C331.844 476 332.639 476.209 333.336 476.578L603.207 9.14778C602.162 8.44302 601.398 7.35408 601.118 6.08362ZM167.649 477.278L247.948 338.195L170.615 204.25L9.99386 204.25C9.91659 205.819 9.11589 207.198 7.9183 208.06L163.558 477.636C164.28 477.231 165.113 477 166 477C166.578 477 167.133 477.098 167.649 477.278ZM171.77 204.25L248.526 337.195L325.282 204.25L171.77 204.25Z" fill="white" fill-opacity="0.4"/>
</svg>

<svg width="611" height="487" fill="none" xmlns="http://www.w3.org/2000/svg"><path fill-rule="evenodd" clip-rule="evenodd" d="M61 5.084V5a5 5 0 10-2.823 4.502L170.038 203.25H9.944a5 5 0 10-2.892 5.311l155.684 269.651a5 5 0 105.822-.509l79.968-138.508 79.535 137.759a5 5 0 106.109.179L604.088 9.621a5 5 0 10-3.087-4.538H60.999zm540.118 1H60.882a5 5 0 01-1.853 2.894L171.192 203.25h155.822l-.578 1-77.333 133.945 79.821 138.255A4.986 4.986 0 01331 476c.844 0 1.639.209 2.336.578L603.207 9.148a5 5 0 01-2.089-3.064zM167.649 477.278l80.299-139.083-77.333-133.945H9.994a4.993 4.993 0 01-2.076 3.81l155.64 269.576A4.976 4.976 0 01166 477c.578 0 1.133.098 1.649.278zm4.121-273.028l76.756 132.945 76.756-132.945H171.77z" fill="#fff" fill-opacity=".4"/></svg>
